packages/katcn/src/icons/svg/hurricane.svg

<svg width="24" height="25" viewBox="0 0 24 25" fill="none" xmlns="http://www.w3.org/2000/svg">
<path d="M14.1 3.96796C9.5 3.96796 5.7 7.56796 5.3 12.168C5.3 12.368 5.3 12.668 5.3 12.868C5.3 16.368 8 19.268 11.4 19.568C10.9 19.668 10.4 19.768 9.9 19.768C6.1 19.668 3 16.568 3 12.868C3 12.268 2.6 11.868 2 11.868C1.4 11.868 1 12.268 1 12.868C1 17.768 5 21.768 9.9 21.768C14.6 21.768 18.4 18.168 18.7 13.568C18.7 13.368 18.7 13.068 18.7 12.868C18.7 9.36796 16 6.46796 12.6 6.16796C13.1 6.06796 13.6 5.96796 14.1 5.96796C17.9 5.96796 21 9.06796 21 12.868C21 13.468 21.4 13.868 22 13.868C22.6 13.868 23 13.468 23 12.868C23 7.96796 19 3.96796 14.1 3.96796ZM16.7 12.868C16.7 15.468 14.6 17.568 12 17.568C9.4 17.568 7.3 15.468 7.3 12.868C7.3 10.268 9.4 8.06796 12 8.06796C14.6 8.06796 16.7 10.268 16.7 12.868Z" fill="black"/>
<path d="M12 14.268C12.7732 14.268 13.4 13.6412 13.4 12.868C13.4 12.0948 12.7732 11.468 12 11.468C11.2268 11.468 10.6 12.0948 10.6 12.868C10.6 13.6412 11.2268 14.268 12 14.268Z" fill="black"/>
</svg>

<svg xmlns="http://www.w3.org/2000/svg" fill="none" viewBox="0 0 24 25"><path fill="#000" d="M14.1 3.968c-4.6 0-8.4 3.6-8.8 8.2v.7c0 3.5 2.7 6.4 6.1 6.7-.5.1-1 .2-1.5.2-3.8-.1-6.9-3.2-6.9-6.9 0-.6-.4-1-1-1s-1 .4-1 1c0 4.9 4 8.9 8.9 8.9 4.7 0 8.5-3.6 8.8-8.2v-.7c0-3.5-2.7-6.4-6.1-6.7.5-.1 1-.2 1.5-.2 3.8 0 6.9 3.1 6.9 6.9 0 .6.4 1 1 1s1-.4 1-1c0-4.9-4-8.9-8.9-8.9m2.6 8.9c0 2.6-2.1 4.7-4.7 4.7s-4.7-2.1-4.7-4.7 2.1-4.8 4.7-4.8 4.7 2.2 4.7 4.8"/><path fill="#000" d="M12 14.268a1.4 1.4 0 1 0 0-2.8 1.4 1.4 0 0 0 0 2.8"/></svg>
